!! 00000] TT[WS
!!!OTL: Tao nan
!!!ARE: Asia, China, Shanxi Yuanping
!! Ethnic Group: Han
!! WII, 209 (1)
!!!SCT: J0712
!!!YEM: Copyright 1995, estate of Helmut Schaffrath.
**kern
*ICvox
*Ivox
*M2/4
*k[b-]
*F:
{8f
16f
16e
8d
8c
=1
8f
8g
4a
=2
8cc
16cc
16g
8a
8g
=3
8f
8e
8d
8c}
=4
{8d
8a
8g
8a
=5
8.c
16d
16f
8.f
=6
8g
16g
16f
8e
8d
=7
2c}
==
!!!AGN: Xiaodiao. Sushuo
!!!ONB: ESAC (Essen Associative Code) Database: CHINA
!!!AMT: simple duple
!!!AIN: vox
!!!EED: Helmut Schaffrath
!!!EEV: 1.0
*-
